Papirus/64x64/mimetypes/application-vnd.google-apps.form.svg

<svg xmlns="http://www.w3.org/2000/svg" width="64" height="64" version="1.1">
 <path style="opacity:0.2" d="m 14.5,7.9999996 c -1.385,0 -2.5,1.115 -2.5,2.5000004 v 45 c 0,1.385 1.115,2.5 2.5,2.5 h 35 C 50.885,58 52,56.885 52,55.5 V 23 L 38.25,21.75 37,7.9999996 Z"/>
 <path style="fill:#13a553" d="M 14.5,7 C 13.115,7 12,8.115 12,9.5 V 54.5 C 12,55.885 13.115,57 14.5,57 H 49.5 C 50.885,57 52,55.885 52,54.5 V 22 L 38.25,20.75 37,7 Z"/>
 <path style="opacity:0.2" d="M 37,7.9999996 V 20.5 c 0,1.3808 1.1193,2.5 2.5,2.5 H 52 Z"/>
 <path style="fill:#70c795" d="M 37,7 V 19.5 C 37,20.881 38.119,22 39.5,22 H 52 Z"/>
 <path style="opacity:0.2" d="m 20,31 v 3 h 3 v -3 z m 5,0 v 3 h 19 v -3 z m -5,5 v 3 h 3 v -3 z m 5,0 v 3 h 19 v -3 z m -5,5 v 3 h 3 v -3 z m 5,0 v 3 h 19 v -3 z m -5,5 v 3 h 3 v -3 z m 5,0 v 3 h 19 v -3 z"/>
 <path style="fill:#ffffff" d="M 20 30 L 20 33 L 23 33 L 23 30 L 20 30 z M 25 30 L 25 33 L 44 33 L 44 30 L 25 30 z M 20 35 L 20 38 L 23 38 L 23 35 L 20 35 z M 25 35 L 25 38 L 44 38 L 44 35 L 25 35 z M 20 40 L 20 43 L 23 43 L 23 40 L 20 40 z M 25 40 L 25 43 L 44 43 L 44 40 L 25 40 z M 20 45 L 20 48 L 23 48 L 23 45 L 20 45 z M 25 45 L 25 48 L 44 48 L 44 45 L 25 45 z"/>
 <path style="opacity:0.2;fill:#ffffff" d="m 14.5,6.9999996 c -1.385,0 -2.5,1.115 -2.5,2.5 V 10.5 C 12,9.1149996 13.115,7.9999996 14.5,7.9999996 H 37 c 0,-1 0,0 0,-1 z"/>
</svg>

<svg xmlns="http://www.w3.org/2000/svg" width="64" height="64" version="1.1">
 <path style="opacity:0.2" d="M 14.5,8 C 13.115,8 12,9.115 12,10.5 V 55.5 C 12,56.885 13.115,58 14.5,58 H 49.5 C 50.885,58 52,56.885 52,55.5 V 23 L 38.25,21.75 37,8 Z"/>
 <path style="fill:#764ebf" d="M 14.5,7 C 13.115,7 12,8.115 12,9.5 V 54.5 C 12,55.885 13.115,57 14.5,57 H 49.5 C 50.885,57 52,55.885 52,54.5 V 22 L 38.25,20.75 37,7 Z"/>
 <path style="opacity:0.2" d="M 37,8 V 20.5 C 37,21.881 38.119,23 39.5,23 H 52 Z"/>
 <path style="fill:#b7a2dd" d="M 37,7 V 19.5 C 37,20.881 38.119,22 39.5,22 H 52 Z"/>
 <path style="opacity:0.1" d="M 20,32 V 35 H 23 V 32 Z M 25,32 V 35 H 44 V 32 Z M 20,39 V 42 H 23 V 39 Z M 25,39 V 42 H 44 V 39 Z M 20,46 V 49 H 23 V 46 Z M 25,46 V 49 H 44 V 46 Z"/>
 <path style="fill:#ffffff" d="M 20,31 V 34 H 23 V 31 Z M 25,31 V 34 H 44 V 31 Z M 20,38 V 41 H 23 V 38 Z M 25,38 V 41 H 44 V 38 Z M 20,45 V 48 H 23 V 45 Z M 25,45 V 48 H 44 V 45 Z"/>
 <path style="opacity:0.2;fill:#ffffff" d="M 14.5,7 C 13.115,7 12,8.115 12,9.5 V 10.5 C 12,9.115 13.115,8 14.5,8 H 37 C 37,7 37,8 37,7 Z"/>
</svg>
